X:8
T:Prince Edward’s Minuet. JClw.08
M:3/4
L:1/8
Q:3/4=60
S:J.Clews MS,Stoke-upon-Tern,Shrops.1832
A:N. Shropshire
Z:Neil Brookes 2006
K:G
D2|G2 GGGG|G2D2G2|d2g4|ecdBcA|!
B2g4|ecdBcA|d2 cBAG|AB c2B2|”^qu in MS”B2A2||!
D2|A2 AAAA|A2d>dd2|A2e>ee2|A2f>ff2|A2 g2 fg|egfedc|!
d2 GGGG|d2B2 de|d2c2B2|c2A2 cd|c2B2A2|B2Bc d2|!
e2 efef|a2c2B2{c}|{B}A2GFED|G2 GGGG|G2D2G2|BAG2B2|!
d2g4|ecdBcA|B2g4|ecdBcA|d2cBAG|(3ABc (3BGA F2|G6||

